assets/picto-singuliere.svg

<svg fill="none" height="249" viewBox="0 0 244 249" width="244" xmlns="http://www.w3.org/2000/svg"><g fill="#000"><path d="M104.5 133.2c-.2-3.2-2.8-5.2-4.3-7.7-1.3-2.2-4-4.3-1.8-7.1 2.5-3.1 5.9-2.7 9-.8 4.6 2.7 8.6 5.9 14.6 2.7 2.8-1.5 5.5 2.1 3.3 4.6-4.4 5.1-2.9 9.1-.1 14.1 2.2 3.9-.8 7-5.4 5.7-4.5-1.4-8.4-1.6-12.1 1.5-1.9 1.6-4.1 1.9-6.5 1.3-4-1-4.8-3-2.5-6.4 1.8-2.7 5-4.4 5.8-7.9zM50.2 79.1c-7.1-.9-11.2-5.6-10.3-11.9.8-5.1 4.9-8.6 9.5-8.1 5.9.7 11.1 6.9 10.4 12.4-.7 5.2-4.5 8.2-9.6 7.6zm139.8 74c-6.7-.1-11.9-3.8-11.6-8.2.3-5.2 5.7-9.3 12.1-9.4 5.5-.1 9.7 3.8 9.6 9.1-.1 5-4.3 8.6-10.1 8.5zM160.9 41.2c-.2 4.5-4.5 8.1-9.6 7.9-5.5-.2-9.4-3.8-9.1-8.3.3-4.9 4.9-9.5 9.7-9.5 4.5-.1 9.1 5.1 9 9.9zM33.3 173.1c-.1-5 4.1-8.9 9.6-9 4.1 0 8.2 3.9 8.5 8.1.4 5.2-2.9 9.6-7.5 9.9-5.9.4-10.5-3.5-10.6-9zm28.5 48.1c5-.1 9.8 3.6 10 7.7.2 4.6-4.7 9.5-9.6 9.5-5.3.1-9.9-3.4-9.9-7.6 0-4.5 4.9-9.5 9.5-9.6zm153.4-9.9c-4.1-.4-7-1.1-9-3.6-.8-1-1.8-2.6-1.5-3.5 1.6-4.7 5.5-7.3 9.6-9.4 3.3-1.7 6.5-.5 9 2.1 2.4 2.4 3 5.2 1.4 8.2-2.2 4.1-5.9 5.9-9.5 6.2zM15.2 98c-6.2 0-11.3-3.6-11-7.7.3-4.5 5.8-9.5 10.2-9.2 4.9.3 8.9 4.3 9 9 0 4.8-3.1 7.9-8.2 7.9zm125.2 150.6c-5-.1-8.8-3.5-8.6-7.7.3-5.5 4.7-9.8 9.6-9.4 4.4.3 8.4 4.4 8.4 8.4-.1 4.5-4.8 8.8-9.4 8.7zM88.1 8.2c0 4.4-3.8 8.3-8.2 8.3-5.5 0-10.1-3.5-10-7.6C70 4.3 73.4 1 78.2.8c5.7-.2 9.9 3 9.9 7.4zm-70 185.2c-.2 4.3-4.2 8.2-8.3 8.2-5 0-9.4-4.2-9-8.4.4-3.8 5.7-7.8 10.1-7.7 4.1.2 7.5 3.8 7.2 7.9zM234.8 59c5.2 0 9.4 3.2 9.1 6.9-.2 3.9-5.5 8-10 7.8-4.9-.2-8.8-3.8-8.5-7.8.2-3.8 4.4-6.9 9.4-6.9z"/></g></svg>

<svg width="244" height="249" viewBox="0 0 244 249" fill="none" xmlns="http://www.w3.org/2000/svg">
<path d="M104.5 133.2C104.3 130 101.7 128 100.2 125.5C98.9 123.3 96.2 121.2 98.4 118.4C100.9 115.3 104.3 115.7 107.4 117.6C112 120.3 116 123.5 122 120.3C124.8 118.8 127.5 122.4 125.3 124.9C120.9 130 122.4 134 125.2 139C127.4 142.9 124.4 146 119.8 144.7C115.3 143.3 111.4 143.1 107.7 146.2C105.8 147.8 103.6 148.1 101.2 147.5C97.2 146.5 96.4 144.5 98.7 141.1C100.5 138.4 103.7 136.7 104.5 133.2Z" fill="black"/>
<path d="M50.2 79.1C43.1 78.2 39 73.5 39.9 67.2C40.7 62.1 44.8 58.6 49.4 59.1C55.3 59.8 60.5 66 59.8 71.5C59.1 76.7 55.3 79.7 50.2 79.1Z" fill="black"/>
<path d="M190 153.1C183.3 153 178.1 149.3 178.4 144.9C178.7 139.7 184.1 135.6 190.5 135.5C196 135.4 200.2 139.3 200.1 144.6C200 149.6 195.8 153.2 190 153.1Z" fill="black"/>
<path d="M160.9 41.2C160.7 45.7 156.4 49.3 151.3 49.1C145.8 48.9 141.9 45.3 142.2 40.8C142.5 35.9 147.1 31.3 151.9 31.3C156.4 31.2 161 36.4 160.9 41.2Z" fill="black"/>
<path d="M33.3 173.1C33.2 168.1 37.4 164.2 42.9 164.1C47 164.1 51.1 168 51.4 172.2C51.8 177.4 48.5 181.8 43.9 182.1C38 182.5 33.4 178.6 33.3 173.1Z" fill="black"/>
<path d="M61.8 221.2C66.8 221.1 71.6 224.8 71.8 228.9C72 233.5 67.1 238.4 62.2 238.4C56.9 238.5 52.3 235 52.3 230.8C52.3 226.3 57.2 221.3 61.8 221.2Z" fill="black"/>
<path d="M215.2 211.3C211.1 210.9 208.2 210.2 206.2 207.7C205.4 206.7 204.4 205.1 204.7 204.2C206.3 199.5 210.2 196.9 214.3 194.8C217.6 193.1 220.8 194.3 223.3 196.9C225.7 199.3 226.3 202.1 224.7 205.1C222.5 209.2 218.8 211 215.2 211.3Z" fill="black"/>
<path d="M15.2 98C9.00003 98 3.90003 94.4 4.20003 90.3C4.50003 85.8 10 80.8 14.4 81.1C19.3 81.4 23.3 85.4 23.4 90.1C23.4 94.9 20.3 98 15.2 98Z" fill="black"/>
<path d="M140.4 248.6C135.4 248.5 131.6 245.1 131.8 240.9C132.1 235.4 136.5 231.1 141.4 231.5C145.8 231.8 149.8 235.9 149.8 239.9C149.7 244.4 145 248.7 140.4 248.6Z" fill="black"/>
<path d="M88.1 8.20004C88.1 12.6 84.3 16.5 79.9 16.5C74.4 16.5 69.8 13.0001 69.9 8.90005C70 4.30006 73.4 1.00002 78.2 0.800018C83.9 0.600018 88.1 3.80004 88.1 8.20004Z" fill="black"/>
<path d="M18.1 193.4C17.9 197.7 13.9 201.6 9.79997 201.6C4.79997 201.6 0.399971 197.4 0.799971 193.2C1.19997 189.4 6.50001 185.4 10.9 185.5C15 185.7 18.4 189.3 18.1 193.4Z" fill="black"/>
<path d="M234.8 59C240 59 244.2 62.2 243.9 65.9C243.7 69.8 238.4 73.9 233.9 73.7C229 73.5 225.1 69.9 225.4 65.9C225.6 62.1 229.8 59 234.8 59Z" fill="black"/>
</svg>
